X: 5183
T: Brisk Young Lads, The
R: jig
M: 6/8
K: Gminor
|:DGG ABc|dcB A2G|~F3 A2B|cfd cAF|
~G3 ABc|dcB ABc|d2G ~G2F|1 ~G3 G2F:|2 ~G3 G2A||
|:B2d f2g|fdB fdB|~F2A ~c2d|cfd cAF|
B2d f2g|fdB ~c2g|g2G ~G2F|1 G3 G2A:|2 G3 G2F||

